X:1
T:St. Patrick (Stanford)
T:St. Patrick (Stanford)
T:Charles Villiers Stanford, 1902
T:Public Domain Courtesy of the Cyber Hymnal™
C:Charles Villiers Stanford, 1902
Z:Public Domain
Z:Courtesy of the Cyber Hymnal™
%%score 1 ( 2 3 ) ( 4 5 )
L:1/8
M:3/4
K:Bb
V:1 treble 
V:2 treble 
V:3 treble 
V:4 bass 
V:5 bass 
V:1
 D2 | G4 G2 | F2 D2 F2 | B2 d2 cB | B2 A2 A2 | c2 A2 F2 | F2 A2 c2 | B4 B2 | A4 d2 | G3 A BG x2 | %10
 F2 D2 B,2 | B4 F2 | G2 A2 Bc | d4 cd | B2 G2 A2 | G4 G2 | G4 F2 | B4 B2 | B4 cd | c4 =B2 x2 | %20
 c4 d2 | G4 G2 | F2 A2 c2 | B4 B2 | A4 D2 | G3 A BG | F2 D2 B,2 | B4 F2 | G2 A2 Bc | d4 cd x | %30
 B2 G2 A2 | G4 G2 | G4 |] %33
V:2
 D2 | B4 G2 | F2 D2 F2 | B2 d2 cB | B2 A2 A2 | c2 A2 F2 | F2- [FA]2 [CEc]2 | [FB]4 [GB]2 | %8
 [CFA]4 [DFd]2 | G3- [GA] BG x2 | F2 D2 B,2 | [B,Dd]4 [B,F]2 | [B,G]2 [DA]2 [DB][Fc] | [DFd]4 cd | %14
 [FB]2 [EG]2 [FA]2 | G4 G2 | [DG]4 [DF]2 | [FB]4 [EGB]2 | [FB]4 [Ec][Dd] | c4 [EG]2 [DG=B]2 | %20
 [EGc]4 [DGd]2 | [EG]4 [EG]2 | F2- [FA]2 c2 | [FB]4 [EGB]2 | [CFA]4 D2 | G3 A BG | F2 D2 B,2 | %27
 B4 x2 | [EG]2 [FA]2 [DB][Fc] | [Fd]4 cd x | [DB]2 [EG]2 [FA]2 | G4 G2 | [DG]4 |] %33
V:3
 x2 | [B,D-]6 | [A,D]6 | [DF]4 [EG]2 | [CF]4- [CF]2 | [CF]6 | C4 x2 | x4 ED | x6 | E4 [B,E]2 x2 | %10
 [B,D]4 x2 | x6 | x6 | x4 F2 | x6 | D4 E2 | x6 | x6 | x6 | E2- x6 | x6 | x6 | C4 [CF]2 | x6 | x6 | %25
 B,6 | [B,D]4 x2 | [B,D]4 F2 | x6 | x4 F2 x | x6 | D4 E2 | x4 |] %33
V:4
 D,2 | [D,-G,]6 | [D,F,]6 | [B,,F,]4 E,2 | F,6 | [F,A,]6 | [F,A,]4 [C,G,]2 | [D,F,]4 [E,B,]2 | %8
 F,4 [B,,F,B,]2 | B,4 [E,,E,-]2 G,2 | [D,F,]4 [B,,D,F,]2 | [G,,D,G,]4 [D,F,]2 | E,2 [D,F,]2 G, A, | %13
 [B,,F,B,]4 [F,A,]2 | [F,B,]2 [G,B,]2 [A,D]2 | [G,-B,]4 [G,-C]2 | [G,B,]4 [B,,B,]2 | %17
 [B,,D]2 [D,B,]2 [E,B,]2 | [D,B,]4 [C,A,][B,,B,] | G,4 x4 | [C,G,]4 [G,B,]2 | [G,B,]4 [G,B,]2 | %22
 [F,A,]6 | [F,B,]4 B,2 | [F,,F,]4 [D,,D,]2 | [E,G,]6 | [B,,F,]4 D,2 | [G,,D,G,]4 [D,B,]2 | %28
 [E,B,]2 [D,D]2 [G,B,][F,A,] | [B,,F,B,]4 A,2 [D,F,] | [G,B,]2 [G,B,]2 [A,D]2 | [G,-B,]4 [G,-C]2 | %32
 [G,,D,G,B,]4 |] %33
V:5
 x2 | G,,2 B,,2 G,,2 | D,,4 D,2 | x6 | x6 | F,,6 | x6 | x6 | x6 | E,2- [G,,E,]2 x4 | x6 | x6 | %12
 x5 F, | x4 F,,2 | D,,2 E,,2 D,,2 | G,,4 C,2 | G,,4 x2 | x6 | x6 | C,2 E,2 G,2 x2 | x4 G,,2 | %21
 E,,6 | F,,6 | D,,4 E,,2 | x6 | E,,6 | x4 B,,A,, | x6 | x6 | x4 F,- x2 | G,,2 E,,2 [D,,D,]2 | %31
 [G,,D,]4 C,2 | x4 |] %33

